assets_src/svg/alef_24_filled.svg

<svg width="24" height="24" xmlns="http://www.w3.org/2000/svg" viewBox="0 0 24 24"><path fill="currentColor" d="M 8.3671875,4.98984375 c -0.01875,0.01171875 -0.065625,0.03515625 -0.103125,0.0515625 c -0.10078125,0.046875 -0.25546875,0.20625 -0.3890625,0.39609375 c -0.03046875,0.04453125 -0.06328125,0.08671875 -0.0703125,0.09375 c -0.03046875,0.0234375 -0.15703125,0.225 -0.18984375,0.29765625 c -0.01875,0.0421875 -0.03984375,0.07734375 -0.04921875,0.07734375 c -0.01171875,0 -0.01875,0.02109375 -0.01875,0.046875 s -0.009375,0.046875 -0.0234375,0.046875 c -0.01171875,0 -0.0234375,0.02109375 -0.0234375,0.046875 s -0.009375,0.046875 -0.0234375,0.046875 c -0.01171875,0 -0.0234375,0.01640625 -0.0234375,0.03515625 c 0,0.02109375 -0.02109375,0.08203125 -0.046875,0.13359375 c -0.02578125,0.05390625 -0.046875,0.11484375 -0.046875,0.1359375 s -0.009375,0.046875 -0.02109375,0.05859375 c -0.01171875,0.0140625 -0.028125,0.08203125 -0.03515625,0.15234375 c -0.0421875,0.37734375 -0.0609375,0.5578125 -0.06328125,0.609375 c -0.00234375,0.13125 0.0328125,0.44765625 0.0515625,0.459375 c 0.01171875,0.00703125 0.02109375,0.05390625 0.02109375,0.103125 s 0.01171875,0.0984375 0.0234375,0.10546875 c 0.0140625,0.00703125 0.0234375,0.03515625 0.0234375,0.0609375 c 0,0.0234375 0.01875,0.0890625 0.04453125,0.1453125 c 0.0234375,0.05390625 0.05859375,0.1359375 0.075,0.18046875 c 0.1171875,0.309375 0.3140625,0.54375 1.35,1.59375 c 0.22265625,0.22734375 0.40546875,0.421875 0.40546875,0.43359375 c 0,0.028125 -0.10546875,0.15234375 -0.1265625,0.15234375 c -0.07265625,0 -0.7734375,0.6515625 -0.9046875,0.84375 c -0.0328125,0.04453125 -0.075,0.103125 -0.0984375,0.1265625 c -0.0234375,0.02578125 -0.0421875,0.0609375 -0.0421875,0.07734375 s -0.009375,0.03046875 -0.01875,0.03046875 s -0.0375,0.03046875 -0.05859375,0.0703125 c -0.0234375,0.0375 -0.05390625,0.08203125 -0.0703125,0.10078125 c -0.03046875,0.0328125 -0.07265625,0.10078125 -0.14296875,0.2390625 c -0.028125,0.0515625 -0.05390625,0.0984375 -0.0609375,0.10546875 c -0.028125,0.028125 -0.0703125,0.11953125 -0.0703125,0.15234375 c 0,0.01875 -0.009375,0.03515625 -0.0234375,0.03515625 c -0.01171875,0 -0.0234375,0.01640625 -0.0234375,0.03515625 s -0.01171875,0.05859375 -0.028125,0.0890625 c -0.05625,0.1125 -0.065625,0.13359375 -0.065625,0.178125 c 0,0.02578125 -0.009375,0.05390625 -0.0234375,0.0609375 c -0.01171875,0.00703125 -0.0234375,0.03984375 -0.0234375,0.0703125 s -0.009375,0.0609375 -0.02109375,0.06796875 s -0.02578125,0.046875 -0.0328125,0.0890625 c -0.009375,0.0421875 -0.02578125,0.1359375 -0.0421875,0.20625 c -0.0375,0.17109375 -0.05390625,1.1484375 -0.02109375,1.18125 c 0.01171875,0.01171875 0.0234375,0.06796875 0.0234375,0.121875 c 0,0.05625 0.009375,0.10546875 0.02109375,0.1125 s 0.02578125,0.05390625 0.03515625,0.10078125 c 0.03046875,0.20625 0.04453125,0.26484375 0.06328125,0.27890625 c 0.01171875,0.00703125 0.02109375,0.0421875 0.02109375,0.08203125 c 0,0.0375 0.009375,0.08671875 0.02109375,0.11015625 c 0.01171875,0.02109375 0.0328125,0.08203125 0.046875,0.13359375 c 0.01640625,0.0515625 0.0375,0.11484375 0.04921875,0.140625 c 0.009375,0.02578125 0.028125,0.0890625 0.0421875,0.140625 c 0.05859375,0.22265625 0.08203125,0.30703125 0.10078125,0.3515625 c 0.046875,0.11484375 0.0796875,0.478125 0.046875,0.5109375 c -0.0140625,0.0140625 -0.02578125,0.04453125 -0.02578125,0.06796875 c 0,0.04453125 -0.07734375,0.19453125 -0.12421875,0.2390625 c -0.0234375,0.0234375 -0.10078125,0.06796875 -0.27890625,0.15703125 c -0.0234375,0.01171875 -0.07734375,0.02109375 -0.121875,0.02109375 c -0.16875,0 -0.365625,0.178125 -0.365625,0.33046875 c 0,0.065625 0.05390625,0.16171875 0.12890625,0.23203125 l 0.06328125,0.05859375 l 1.63125,0.00703125 l 1.63125,0.0046875 l 0.12421875,-0.08203125 c 0.1125,-0.075 0.1359375,-0.10546875 0.25078125,-0.346875 c 0.18515625,-0.37734375 0.21328125,-0.496875 0.2109375,-0.90703125 c 0,-0.3328125 -0.00234375,-0.34453125 -0.0890625,-0.6046875 c -0.1078125,-0.31640625 -0.253125,-0.5671875 -0.4875,-0.84140625 c -0.40078125,-0.46875 -0.79921875,-0.96796875 -0.95859375,-1.20234375 c -0.2484375,-0.36328125 -0.31171875,-0.93046875 -0.1640625,-1.49765625 c 0.028125,-0.1078125 0.0796875,-0.25078125 0.1125,-0.31640625 c 0.05390625,-0.1078125 0.33046875,-0.5015625 0.45234375,-0.64453125 l 0.046875,-0.05390625 l 0.12421875,0.10546875 c 0.065625,0.05859375 1.19296875,1.17421875 2.503125,2.4796875 C 14.709375,15.7359375 14.859375,15.890625 14.9671875,16.078125 c 0.11015625,0.18984375 0.196875,0.36328125 0.2484375,0.4921875 c 0.0140625,0.0328125 0.0328125,0.07734375 0.04453125,0.0984375 c 0.01171875,0.0234375 0.02109375,0.06328125 0.02109375,0.08671875 c 0,0.02578125 0.009375,0.0515625 0.02109375,0.05859375 c 0.02578125,0.01640625 0.04921875,0.14765625 0.06328125,0.35390625 c 0.02109375,0.32578125 0.1453125,0.48046875 0.384375,0.48046875 c 0.11953125,0 0.1828125,-0.03515625 0.3796875,-0.2015625 c 0.3375,-0.29296875 0.6375,-0.77578125 0.75703125,-1.228125 c 0.18984375,-0.71484375 0.11484375,-1.40625 -0.225,-2.06484375 c -0.13125,-0.2578125 -0.18046875,-0.3140625 -0.9,-1.05234375 c -1.1671875,-1.19765625 -1.0546875,-1.07109375 -1.1109375,-1.25625 c -0.065625,-0.225 -0.06796875,-0.6890625 -0.0046875,-0.946875 c 0.09140625,-0.35859375 0.30703125,-0.78046875 0.60234375,-1.171875 c 0.24140625,-0.32109375 0.37265625,-0.38203125 0.51328125,-0.2390625 c 0.09375,0.09140625 0.12890625,0.2015625 0.12890625,0.39140625 c 0,0.1640625 0.00234375,0.1734375 0.0796875,0.2390625 c 0.0421875,0.03984375 0.1265625,0.08203125 0.1875,0.0984375 c 0.20859375,0.0515625 0.36796875,-0.0703125 0.6,-0.4640625 c 0.30703125,-0.515625 0.43125,-1.0875 0.34921875,-1.59609375 c -0.0375,-0.24140625 -0.17109375,-0.59296875 -0.28828125,-0.77109375 c -0.1125,-0.16875 -0.30703125,-0.36328125 -0.48515625,-0.4828125 c -0.05625,-0.0375 -0.1078125,-0.07734375 -0.11484375,-0.08671875 c -0.0234375,-0.03046875 -0.66796875,-0.346875 -0.7078125,-0.346875 c -0.0234375,0 -0.0421875,-0.01171875 -0.0421875,-0.0234375 c 0,-0.0140625 -0.01640625,-0.0234375 -0.03515625,-0.0234375 s -0.08671875,-0.0234375 -0.14765625,-0.0515625 c -0.43125,-0.19921875 -0.7546875,-0.59296875 -0.7546875,-0.91875 c 0,-0.1734375 -0.03984375,-0.3046875 -0.1125,-0.37734375 c -0.04921875,-0.04921875 -0.0796875,-0.05859375 -0.20625,-0.05859375 c -0.084375,0 -0.15,0.009375 -0.15,0.0234375 c 0,0.01171875 -0.0140625,0.0234375 -0.03046875,0.0234375 c -0.04453125,0 -0.43828125,0.4171875 -0.43828125,0.4640625 c 0,0.009375 -0.02578125,0.046875 -0.05859375,0.084375 s -0.05859375,0.075 -0.05859375,0.084375 s -0.02578125,0.046875 -0.05859375,0.084375 s -0.05859375,0.08203125 -0.05859375,0.09609375 c 0,0.01640625 -0.00703125,0.03046875 -0.01875,0.03046875 c -0.01640625,0 -0.04453125,0.05625 -0.0984375,0.2109375 c -0.01640625,0.04453125 -0.04921875,0.1265625 -0.07265625,0.18046875 c -0.02578125,0.05625 -0.04453125,0.11953125 -0.04453125,0.14296875 s -0.009375,0.0515625 -0.02109375,0.06328125 c -0.075,0.0796875 -0.075,0.98671875 0,1.03359375 c 0.01171875,0.00703125 0.02109375,0.0328125 0.02109375,0.05625 c 0,0.05625 0.1453125,0.31640625 0.2109375,0.375 c 0.00703125,0.00703125 0.04921875,0.05859375 0.09375,0.1171875 c 0.25546875,0.3328125 0.5765625,0.5578125 1.125,0.78515625 c 0.2625,0.1078125 0.26484375,0.12890625 0.03515625,0.3703125 c -0.084375,0.0890625 -0.15234375,0.17578125 -0.15234375,0.19453125 s -0.009375,0.0328125 -0.0234375,0.0328125 c -0.01171875,0 -0.0234375,0.0140625 -0.0234375,0.03046875 s -0.01875,0.0515625 -0.03984375,0.07734375 c -0.0515625,0.05859375 -0.10546875,0.14765625 -0.1875,0.3140625 c -0.03515625,0.0703125 -0.07265625,0.13125 -0.08203125,0.1359375 s -0.01875,0.028125 -0.01875,0.0515625 s -0.009375,0.0515625 -0.0234375,0.05859375 c -0.01171875,0.00703125 -0.0234375,0.03984375 -0.0234375,0.07265625 c 0,0.03046875 -0.009375,0.05625 -0.0234375,0.05625 c -0.01171875,0 -0.0234375,0.02109375 -0.0234375,0.04453125 c 0,0.02578125 -0.0234375,0.09140625 -0.04921875,0.14765625 c -0.08671875,0.17109375 -0.08203125,0.16171875 -0.13125,0.43359375 c -0.00703125,0.0421875 -0.02109375,0.07734375 -0.03046875,0.07734375 c -0.01171875,0 -0.0234375,0.01640625 -0.028125,0.0375 c -0.00703125,0.03984375 -4.3125,-4.25390625 -4.4578125,-4.44609375 c -0.1453125,-0.19453125 -0.31875,-0.61171875 -0.36796875,-0.89765625 c -0.0234375,-0.13828125 -0.04453125,-0.2953125 -0.04453125,-0.34921875 c 0,-0.1125 -0.06796875,-0.2296875 -0.15703125,-0.271875 c -0.03515625,-0.01640625 -0.084375,-0.03984375 -0.10546875,-0.0515625 c -0.0515625,-0.02578125 -0.1828125,-0.02578125 -0.2296875,0"/></svg>

<svg xmlns="http://www.w3.org/2000/svg" width="24" height="24" viewBox="0 0 24 24"><path d="M8.367188 4.989844C8.348437 5.001563 8.301562 5.025 8.264063 5.041406C8.163281 5.088281 8.008594 5.247656 7.875 5.4375C7.844531 5.482031 7.811719 5.524219 7.804688 5.53125C7.774219 5.554688 7.647656 5.75625 7.614844 5.828906C7.596094 5.871094 7.575 5.90625 7.565625 5.90625C7.553906 5.90625 7.546875 5.927344 7.546875 5.953125C7.546875 5.978906 7.5375 6 7.523437 6C7.511719 6 7.5 6.021094 7.5 6.046875C7.5 6.072656 7.490625 6.09375 7.476562 6.09375C7.464844 6.09375 7.453125 6.110156 7.453125 6.128906C7.453125 6.15 7.432031 6.210938 7.40625 6.2625C7.380469 6.316406 7.359375 6.377344 7.359375 6.398438C7.359375 6.419531 7.35 6.445313 7.338281 6.457031C7.326562 6.471094 7.310156 6.539063 7.303125 6.609375C7.260937 6.986719 7.242187 7.167188 7.239844 7.21875C7.2375 7.35 7.272656 7.666406 7.291406 7.678125C7.303125 7.685156 7.3125 7.732031 7.3125 7.78125C7.3125 7.830469 7.324219 7.879687 7.335937 7.886719C7.35 7.89375 7.359375 7.921875 7.359375 7.947656C7.359375 7.971094 7.378125 8.036719 7.403906 8.092969C7.427344 8.146875 7.4625 8.228906 7.478906 8.273438C7.596094 8.582812 7.792969 8.817187 8.828906 9.867188C9.051562 10.094531 9.234375 10.289063 9.234375 10.300781C9.234375 10.328906 9.128906 10.453125 9.107812 10.453125C9.035156 10.453125 8.334375 11.104688 8.203125 11.296875C8.170312 11.341406 8.128125 11.4 8.104687 11.423437C8.08125 11.449219 8.0625 11.484375 8.0625 11.500781C8.0625 11.517187 8.053125 11.53125 8.04375 11.53125C8.034375 11.53125 8.00625 11.561719 7.985156 11.601563C7.961719 11.639063 7.93125 11.683594 7.914844 11.702344C7.884375 11.735156 7.842187 11.803125 7.771875 11.941406C7.74375 11.992969 7.717969 12.039844 7.710937 12.046875C7.682812 12.075 7.640625 12.166406 7.640625 12.199219C7.640625 12.217969 7.63125 12.234375 7.617187 12.234375C7.605469 12.234375 7.59375 12.250781 7.59375 12.269531C7.59375 12.288281 7.582031 12.328125 7.565625 12.358594C7.509375 12.471094 7.5 12.492188 7.5 12.536719C7.5 12.5625 7.490625 12.590625 7.476562 12.597656C7.464844 12.604687 7.453125 12.6375 7.453125 12.667969C7.453125 12.698437 7.44375 12.728906 7.432031 12.735937C7.420312 12.742969 7.40625 12.782812 7.399219 12.825C7.389844 12.867187 7.373437 12.960937 7.357031 13.03125C7.319531 13.202344 7.303125 14.179687 7.335937 14.2125C7.347656 14.224219 7.359375 14.280469 7.359375 14.334375C7.359375 14.390625 7.36875 14.439844 7.380469 14.446875C7.392187 14.453906 7.40625 14.500781 7.415625 14.547656C7.446094 14.753906 7.460156 14.8125 7.478906 14.826562C7.490625 14.833594 7.5 14.86875 7.5 14.908594C7.5 14.946094 7.509375 14.995312 7.521094 15.01875C7.532812 15.039844 7.553906 15.100781 7.567969 15.152344C7.584375 15.203906 7.605469 15.267187 7.617187 15.292969C7.626562 15.31875 7.645312 15.382031 7.659375 15.433594C7.717969 15.65625 7.741406 15.740625 7.760156 15.785156C7.807031 15.9 7.839844 16.263281 7.807031 16.296094C7.792969 16.310156 7.78125 16.340625 7.78125 16.364062C7.78125 16.408594 7.703906 16.558594 7.657031 16.603125C7.633594 16.626562 7.55625 16.671094 7.378125 16.760156C7.354687 16.771875 7.300781 16.78125 7.25625 16.78125C7.0875 16.78125 6.890625 16.959375 6.890625 17.111719C6.890625 17.177344 6.944531 17.273437 7.019531 17.34375L7.082812 17.402344L8.714062 17.409375L10.345312 17.414062L10.469531 17.332031C10.582031 17.257031 10.605469 17.226562 10.720312 16.985156C10.905469 16.607812 10.933594 16.488281 10.93125 16.078125C10.93125 15.745312 10.928906 15.733594 10.842187 15.473437C10.734375 15.157031 10.589062 14.90625 10.354687 14.632031C9.953906 14.163281 9.555469 13.664063 9.396094 13.429688C9.147656 13.066406 9.084375 12.499219 9.232031 11.932031C9.260156 11.824219 9.311719 11.68125 9.344531 11.615625C9.398437 11.507813 9.675 11.114063 9.796875 10.971094L9.84375 10.917188L9.967969 11.022656C10.033594 11.08125 11.160937 12.196875 12.471094 13.502344C14.709375 15.735937 14.859375 15.890625 14.967188 16.078125C15.077344 16.267969 15.164063 16.441406 15.215625 16.570313C15.229688 16.603125 15.248438 16.647656 15.260156 16.66875C15.271875 16.692188 15.28125 16.732031 15.28125 16.755469C15.28125 16.78125 15.290625 16.807031 15.302344 16.814063C15.328125 16.830469 15.351563 16.961719 15.365625 17.167969C15.386719 17.49375 15.510938 17.648438 15.75 17.648438C15.869531 17.648438 15.932812 17.613281 16.129688 17.446875C16.467188 17.153906 16.767188 16.671094 16.886719 16.21875C17.076563 15.503906 17.001562 14.8125 16.661719 14.153906C16.530469 13.896094 16.48125 13.839844 15.761719 13.101563C14.594531 11.903906 14.707031 12.030469 14.650781 11.845313C14.585156 11.620313 14.582813 11.15625 14.646094 10.898438C14.7375 10.539844 14.953125 10.117969 15.248438 9.726563C15.489844 9.405469 15.621094 9.344531 15.761719 9.4875C15.855469 9.578906 15.890625 9.689063 15.890625 9.878906C15.890625 10.042969 15.892969 10.052344 15.970312 10.117969C16.0125 10.157813 16.096875 10.2 16.157812 10.216406C16.366406 10.267969 16.525781 10.146094 16.757813 9.752344C17.064844 9.236719 17.189062 8.664844 17.107031 8.15625C17.069531 7.914844 16.935938 7.563281 16.81875 7.385156C16.70625 7.216406 16.511719 7.021875 16.333594 6.902344C16.277344 6.864844 16.225781 6.825 16.21875 6.815625C16.195313 6.785156 15.550781 6.46875 15.510937 6.46875C15.4875 6.46875 15.46875 6.457031 15.46875 6.445313C15.46875 6.43125 15.452344 6.421875 15.433594 6.421875C15.414844 6.421875 15.346875 6.398438 15.285938 6.370313C14.854688 6.171094 14.53125 5.777344 14.53125 5.451563C14.53125 5.278125 14.491406 5.146875 14.41875 5.074219C14.369531 5.025 14.339063 5.015625 14.2125 5.015625C14.128125 5.015625 14.0625 5.025 14.0625 5.039063C14.0625 5.050781 14.048438 5.0625 14.032031 5.0625C13.9875 5.0625 13.59375 5.479688 13.59375 5.526563C13.59375 5.535938 13.567969 5.573438 13.535156 5.610938C13.502344 5.648438 13.476563 5.685938 13.476563 5.695313C13.476563 5.704688 13.450781 5.742188 13.417969 5.779688C13.385156 5.817188 13.359375 5.861719 13.359375 5.875781C13.359375 5.892188 13.352344 5.90625 13.340625 5.90625C13.324219 5.90625 13.296094 5.9625 13.242188 6.117188C13.225781 6.161719 13.192969 6.24375 13.169531 6.297656C13.14375 6.353906 13.125 6.417188 13.125 6.440625C13.125 6.464063 13.115625 6.492188 13.103906 6.503906C13.028906 6.583594 13.028906 7.490625 13.103906 7.5375C13.115625 7.544531 13.125 7.570313 13.125 7.59375C13.125 7.65 13.270313 7.910156 13.335938 7.96875C13.342969 7.975781 13.385156 8.027344 13.429688 8.085938C13.685156 8.41875 14.00625 8.64375 14.554688 8.871094C14.817188 8.978906 14.819531 9 14.589844 9.241406C14.505469 9.330469 14.4375 9.417188 14.4375 9.435938C14.4375 9.454688 14.428125 9.46875 14.414063 9.46875C14.402344 9.46875 14.390625 9.482813 14.390625 9.499219C14.390625 9.515625 14.371875 9.550781 14.350781 9.576563C14.299219 9.635156 14.245313 9.724219 14.163281 9.890625C14.128125 9.960938 14.090625 10.021875 14.08125 10.026563C14.071875 10.03125 14.0625 10.054688 14.0625 10.078125C14.0625 10.101563 14.053125 10.129688 14.039063 10.136719C14.027344 10.14375 14.015625 10.176563 14.015625 10.209375C14.015625 10.239844 14.00625 10.265625 13.992188 10.265625C13.980469 10.265625 13.96875 10.286719 13.96875 10.310156C13.96875 10.335938 13.945313 10.401563 13.919531 10.457813C13.832813 10.628906 13.8375 10.619531 13.788281 10.891406C13.78125 10.933594 13.767188 10.96875 13.757813 10.96875C13.746094 10.96875 13.734375 10.985156 13.729688 11.00625C13.722656 11.046094 9.417188 6.752344 9.271875 6.560156C9.126563 6.365625 8.953125 5.948438 8.903906 5.6625C8.880469 5.524219 8.859375 5.367188 8.859375 5.313281C8.859375 5.200781 8.791406 5.083594 8.702344 5.041406C8.667188 5.025 8.617969 5.001563 8.596875 4.989844C8.545313 4.964063 8.414063 4.964063 8.367188 4.989844Z"/></svg>
